packages/icon/src/svg/move.icon.svg

<svg width="24" height="24" viewBox="0 0 24 24" fill="none" xmlns="http://www.w3.org/2000/svg">
<path fill-rule="evenodd" clip-rule="evenodd" d="M12 2C6.48608 2 2 6.48608 2 12C2 17.5139 6.48608 22 12 22C17.5139 22 22 17.5139 22 12C22 6.48608 17.5139 2 12 2ZM12 4C7.58887 4 4 7.58887 4 12C4 16.4111 7.58887 20 12 20C16.4111 20 20 16.4111 20 12C20 7.58887 16.4111 4 12 4ZM14.2366 12.0605L15.176 13H11.5C11.2239 13 11 13.2239 11 13.5V14.5C11 14.7761 11.2239 15 11.5 15H15.176L14.2367 15.9386C14.0414 16.1337 14.0413 16.4503 14.2365 16.6456L14.9436 17.3533C15.1387 17.5487 15.4552 17.5488 15.6506 17.3535L18.6504 14.3535C18.8457 14.1582 18.8457 13.8417 18.6504 13.6464L15.6505 10.6455C15.4554 10.4501 15.1389 10.4501 14.9434 10.6455L14.2365 11.3533C14.0414 11.5487 14.0415 11.8652 14.2366 12.0605ZM8.828 11L9.76733 11.9386C9.96265 12.1338 9.96277 12.4503 9.76758 12.6456L9.06055 13.3534C8.86511 13.5488 8.54858 13.5488 8.35339 13.3534L5.35364 10.3535C5.15833 10.1582 5.15833 9.84167 5.35352 9.64636L8.35327 6.64539C8.54883 6.45007 8.86536 6.4502 9.06042 6.64563L9.76746 7.35339C9.96265 7.54871 9.96252 7.86523 9.76746 8.06055L8.828 9H12.5C12.7761 9 13 9.22388 13 9.5V10.5C13 10.7761 12.7761 11 12.5 11H8.828Z" fill="white"/>
</svg>

<svg aria-label="move icon" viewBox="0 0 24 24"><path fill-rule="evenodd" clip-rule="evenodd" d="M12 2C6.486 2 2 6.486 2 12s4.486 10 10 10 10-4.486 10-10S17.514 2 12 2zm0 2c-4.411 0-8 3.589-8 8s3.589 8 8 8 8-3.589 8-8-3.589-8-8-8zm2.237 8.06l.939.94H11.5a.5.5 0 00-.5.5v1a.5.5 0 00.5.5h3.676l-.94.939a.5.5 0 000 .707l.708.707a.5.5 0 00.707 0l3-3a.5.5 0 000-.707l-3-3a.5.5 0 00-.708 0l-.707.707a.5.5 0 000 .707zM8.828 11l.94.939a.5.5 0 010 .707l-.707.707a.5.5 0 01-.708 0l-3-3a.5.5 0 010-.707l3-3a.5.5 0 01.707 0l.707.707a.5.5 0 010 .708L8.828 9H12.5a.5.5 0 01.5.5v1a.5.5 0 01-.5.5H8.828z"/></svg>
